!!!ONB: MCCC : ILB0172_04 : Extracted Monophonic Melody
!!!COM: Beethoven, Ludwig van
!!!OPR: Piano Sonata No.11
!!!OMV: 4
!!!SCT: Op.22
!!!ODT: 1799///
**kern
*thru
*staff1
*clefG2
*k[b-e-]
*B-:
*M2/4
*MM84
16ff
16gg
16ff
=1
16ee-
16dd
16cc
16b-
8a
8b-
=2
8b
[8cc
16cc]
16ff#
16aa
16gg
=3
16ff
16ee-
16dd
16cc
8b-
8cc
=4
8cc#
[8dd
16dd]
16ff
16gg
16dd
=5
16ff
16ee-
16ff
16cc
16ee-
16dd
16gg
16dd
=6
16ff
16ee-
16ff
16cc
16dd
16ee-
16ee
16ff
=7
16ff#
16gg
16aa
16bb-
16ccc
16ccc#
16ddd
16ee
=8
8gg
8ff
16r
16ff
16gg
16ff
=9
16ee-
16dd
16cc
16b-
8a
8b-
=10
8b
8.cc
16ff#
16aa
16gg
=11
16ff
16ee-
16dd
16cc
8b-
8cc
=12
8cc#
8.dd
16ff
16gg
16dd
=13
16ff
16ee-
16ff
16cc
16ee-
16dd
16gg
16dd
=14
16ff
16ee-
16ff
16cc
16ee-
16dd
16ee-
16ff
=15
16ff#
16gg
16aa
16bb-
8b-
8cc
=16
8cc#
[8dd
32dd]
32b-
32a
32b-
32b
32cc
32cc#
32dd
=17
32ee-
32ee
32ff
32ff#
32gg
32aa-
32aa
32bb-
8b-
16.dd
32cc
=18
8b-
8r
4dd
=19
8.cc
32dd
32ee-
8g
8a
=20
8b-
16f
16r
4dd
=21
8cc
16.cc
32dd
8b-
16.b-
32cc
=22
8b-
16a
16r
8r
32a
32ff
16aa[
=23
8aa]
32a
32ff
[16aa
8aa]
32a
32ff
16aa[
=24
8aa]
32a
32ff
16aa
8r
8fff[
=25
8fff]
16eee
16r
8r
8ddd[
=26
8ddd]
16ccc
16r
8r
[8bb-
=27
16bb-]
8aa
8gg
8ff
16gg
=28
8gg#
16aa
16r
8a
8b[
=29
8b]
16cc
16r
8f
8g
=30
8g#
16a
16r
8d
8e
=31
16f
8A
8G
8F
16E
=32
8r
32A
32c
32f
32a
32c
32f
32a
32cc
32f
32a
32cc
32ff
=33
32ee
32bb-
32gg
32ee
32cc
32gg
32ee
32cc
32b-
32ee
32cc
32b-
32g
32cc
32b-
32g
=34
32f
32A
32c
32f
32a
32cc
32ff
32aa
32cc
32ff
32aa
32ccc
32ff
32aa
32ccc
32fff
=35
32bb-
32eee
32ccc
32bb-
32gg
32ccc
32bb-
32gg
32ee
32bb-
32gg
32ee
32b-
32gg
32ee
32b-
=36
32a
32A
32c
32f
32a
32cc
32ff
32aa
32cc
32ff
32aa
32ccc
32ff
32aa
32ccc
32fff
=37
32r
32A
32c
32f
32a
32cc
32ff
32aa
32cc
32ff
32aa
32ccc
32ff
32aa
32ccc
32fff
=38
32r
32B-
32d-
32f
32b-
32dd-
32ff
32bb-
32dd-
32ff
32bb-
32ddd-
32ff
32bb-
32ddd-
32fff
=39
32ee
32eee
32ddd-
32bb-
32ee
32dd-
32b-
32e
32d-
32e-
32d-
32c
32B-
32d-
32c
32B-
=40
8A
8r
4r
=41
4r
16r
16c
16d
16c
=42
4r
8r
8r
=43
4r
16r
16e-
16f
16e-
=44
16d
16c
16B-
16A
8A
16r
16cc
=45
16dd
16cc
16b-
16a
16g
16f
16r
16ee-
=46
16ff
16ee-
16dd
16cc
16b-
16a
16ff
16ee-
=47
16dd
16cc
16b-
16a
16ff
16ee-
16dd
16cc
=48
24b-
24a
24ff
24ee-
24dd
24cc
32b-
32a
32ff
32ee-
32dd
32cc
32b-
32a
=49
32ff
32ee-
32dd
32cc
32b-
32a
32gg-
32ff
40ee-
40dd
40cc
40b-
40a
16gg
16ff
=50
16ee-
16dd
16cc
16b-
8a
8b-
=51
8b
8.cc
16ff#
16aa
16gg
=52
16ff
16ee-
16dd
16cc
16a
16b-
16b
16cc
=53
8cc#
8.dd
16ff
16gg
16dd
=54
16ff
16ee-
16ff
16cc
16ee-
16dd
16gg
16dd
=55
16ff
16ee-
16ff
16cc
16dd
16ee-
16ee
16ff
=56
16ff#
16gg
16aa
16bb-
16ccc
16ccc#
16ddd
16ee
=57
8gg
8ff
16r
16ff
16gg
16ff
=58
16ee-
16dd
16cc
16b-
8a
8b-
=59
8b
8.cc
16ff#
16aa
16gg
=60
16ff
16ee-
16dd
16cc
16a
16b-
16b
16cc
=61
8cc#
8.dd
16ff
16gg
16dd
=62
16ff
16ee-
16ff
16cc
16ee-
16dd
16gg
16dd
=63
16ff
16ee-
16ff
16cc
16ee-
16dd
16ee-
16ff
=64
16ff#
16gg
16aa
16bb-
8b-
8cc
=65
8cc#
[8dd
32dd]
32b-
32a
32b-
32b
32cc
32cc#
32dd
=66
32ee-
32ee
32ff
32ff#
32gg
32aa-
32aa
32bb-
8b-
16.dd
32cc
=67
8b-
8r
4d-
=68
8.c-
32d-
32e-
8G-
8A
=69
4r
4d-
=70
4c
4b-
=71
8a-
4ff
8ee
=72
16ff
32c
32B-
32c
32A-
32c
32G
32c
32F
32c
32E
32c
32F
32c
32G
=73
32c
32A-
32f
32e-
32f
32d-
32f
32c
32f
32B-
32f
32A
32f
32B-
32f
32c
=74
32f
32d-
32f
32d-
32g
32f
32g
32f
32a-
32f
32a-
32f
32b-
32e
32b-
32e
=75
16f
32cc
32b-
32cc
32a-
32cc
32g
32cc
32f
32cc
32e
32cc
32f
32cc
32g
=76
32cc
32a-
32ff
32ee-
32ff
32dd-
32ff
32cc
32ff
32b-
32ff
32a
32ff
32b-
32ff
32cc
=77
32ff
32dd-
32ff
32dd-
32gg
32ff
32gg
32ff
32aa-
32ff
32aa-
32ff
32bb-
32ee
32bb-
32ee
=78
16ff
8fff
16fff
32eee
32ddd-
32bb-
32gg
16ee
16ee
=79
16ff
8ff
16ff
32ee
32dd-
32b-
32g
16e
16e
=80
8f
8r
4r
=81
8r
[8B-
8B-_
32B-]
32d-
32c
32B-
=82
8A-
16F
16r
4r
=83
8r
[8e-
8e-_
32e-]
32g-
32f
32e-
=84
8d-
16B-
16r
4dd-
=85
8.cc
32dd-
32ee-
8g
8a
=86
4b-
4gg-
=87
8.ff
32gg-
32aa-
8cc
8dd
=88
4ee-
4r
=89
8r
[8ccc-
8.ccc-]
32bb-
32aa-
=90
8gg-
[8bb-
8.bb-]
32aa-
32gg-
=91
8.ff
32gg-
32aa-
8cc
8dd-
=92
8.ee-
32ff
32gg-
8b-
8cc
=93
8.dd-
32ee-
32ff
8.gg-
32aa-
32bb-
=94
8.ccc-
32ddd-
32eee-
8b-
8a
=95
16b-
32f
32e-
32f
32d-
32f
32c
32f
32B-
32f
32A
32f
32B-
32f
32c
=96
32f
32d-
32b-
32a-
32b-
32g-
32b-
32f
32b-
32e-
32b-
32d
32b-
32e-
32b-
32f
=97
32b-
32g-
32b-
32g-
32cc
32b-
32cc
32b-
32dd-
32b-
32dd-
32b-
32ee-
32a
32ee-
32a
=98
16b-
32ff
32ee-
32ff
32dd-
32ff
32cc
32ff
32b-
32ff
32a
32ff
32b-
32ff
32cc
=99
32ff
32dd-
32bb-
32aa-
32bb-
32gg-
32bb-
32ff
32bb-
32ee-
32bb-
32dd
32bb-
32ee-
32bb-
32ff
=100
32bb-
32gg-
32bb-
32gg-
32ccc
32bb-
32ccc
32bb-
32ddd-
32bb-
32ddd-
32bb-
32eee-
32aa
32eee-
32aa
=101
16bb-
8fff
16fff
32eee-
32ccc
32aa
32ff
32ee-
32dd
32ee-
32cc
=102
16b-
8ff
16ff
32ee-
32cc
32a
32f
32e-
32d
32e-
32c
=103
8B-
8r
4r
=104
2r
=105
4e-
4r
=106
2r
=107
8g-
8.f
16f
16g-
16f
=108
8g-
8.f
16f
16g-
16f
=109
8.g-
16f
8.g-
16f
=110
32g-
32f
32g-
32f
32g-
32f
32g-
32f
32g-
32f
32g-
32f
32g-
32f
32g-
32f
=111
32g
32f
32g
32f
32g
32f
32g
32f
32g
32f
32g
32f
32g
32f
32g
32f
=112
16r
16f
16ff
16f
16r
16f
16ff
16f
=113
16r
16f
16ff
16f
16ff
16r
8r
=114
16r
16f
16ff
16f
16r
16f
16ff
16f
=115
16r
16f
16ff
16f
8ff
8r
=116
16r
16ff
8fff
16r
16f
8ff
=117
16r
16ff
8fff
16r
8ff
32gg
32aa
=118
32bb-
32ccc
32ddd
32ccc
32bb-
32aa
32gg
32ff
32ee
32dd
32cc
32b-
32a
32g
32f
32e
=119
32g
32f
32a
32g
32b-
32a
32cc
32b-
32dd
32cc
32ee-
32dd
32ff
32ee
32gg
32ff
=120
16ee-
16dd
16cc
16b-
8a
8b-
=121
8b
8.cc
32f#
32ff#
32a
32aa
32g
32gg
=122
32f
32ff
32e-
32ee-
32d
32dd
32c
32cc
32A
32a
32B-
32b-
32B
32b
32c
32cc
=123
8cc#
8.dd
32f
32ff
32g
32gg
32d
32dd
=124
32f
32ff
32e-
32ee-
32f
32ff
32c
32cc
32e-
32ee-
32d
32dd
32g
32gg
32d
32dd
=125
32f
32ff
32e-
32ee-
32f
32ff
32c
32cc
32e-
32ee-
32d
32dd
32e-
32ee-
32f
32ff
=126
32f#
32ff#
32g
32gg
32a
32aa
32b-
32bb-
8b-
8cc
=127
8cc#
[8dd
32dd]
32b-
32a
32b-
32b
32cc
32cc#
32dd
=128
32ee-
32ee
32ff
32ff#
32gg
32aa-
32aa
32bb-
8b-
16.dd
32cc
=129
8b-
8r
4dd
=130
8.cc
32dd
32ee-
8g
8a
=131
8b-
16f
16r
4dd
=132
8cc
16.cc
32dd
8b-
16.b-
32cc
=133
8b-
16a
16r
4gg
=134
8ff
16.ff
32gg
8ee-
16.ee-
32ff
=135
8ee-
16dd
16r
32dd
32bb
32ddd[
=136
8ddd]
32dd
32bb-
[16ddd
8ddd]
32dd
32bb-
16ddd
=137
8ddd
32dd
32bb-
16ddd
8r
8ddd[
=138
8ddd]
16ccc
16r
8r
8bb-[
=139
8bb-]
16aa
16r
8r
8gg[
=140
16gg]
8ff
8ee-
8dd
16cc
=141
8cc#
16dd
16r
8d
8dd[
=142
8dd]
16cc
16r
8B-
8b-[
=143
8b-]
16a
16r
8g
[8g-
=144
16g-]
8f
8e-
8d
16c
=145
32B-
32D
32F
32B-
32d
32f
32b-
32dd
32f
32b-
32dd
32ff
32b-
32dd
32ff
32bb-
=146
32aa
32eee-
32ccc
32aa
32ff
32ccc
32aa
32ff
32ee-
32aa
32ff
32ee-
32cc
32ff
32ee-
32cc
=147
32b-
32D
32F
32B-
32d
32f
32b-
32dd
32f
32b-
32dd
32ff
32b-
32dd
32ff
32bb-
=148
32aa
32eee-
32ccc
32aa
32ff
32ccc
32aa
32ff
32ee-
32aa
32ff
32ee-
32cc
32ff
32ee-
32cc
=149
32b-
32D
32F
32B-
32d
32f
32b-
32dd
32f
32b-
32dd
32ff
32b-
32dd
32ff
32bb-
=150
32r
32D
32F
32B-
32d
32f
32b-
32dd
32f
32b-
32dd
32ff
32b-
32dd
32ff
32bb-
=151
32r
32E-
32G
32B-
32e-
32g
32b-
32ee-
32g
32b-
32ee-
32gg
32b-
32ee-
32gg
32bb-
=152
4r
32d
32f
32a-
32b-
40dd
40ff
40aa-
40ccc
40bb-
=153
16aa-
16gg
16ff
16ee-
8dd
8ee-
=154
8ee
8.ff
16bb
16ddd
16ccc
=155
16bb-
16aa-
16gg
16ff
16dd
16ee-
16ee
16ff
=156
8ff#
8.gg
16gg
16aa-
16gg
=157
16ff
16ee-
16dd
16cc
8b
8cc
=158
8cc#
8dd
16r
16gg
16aa-
16gg
=159
16ff
16ee-
16dd
16cc
16r
16ee-
16ff
16ee-
=160
16dd
16cc
16b-
16a
4r
=161
2r
=162
32r
32A
32B-
32c
32d
32e-
32f
32g
24a
24b-
24b
24cc
24cc#
24dd
=163
24ee-
24a
24b-
24b
24cc
24dd
24ee-
24a
24b-
24b
24cc
24dd
=164
32ee-
32a
32g#
32a
32b-
32b
32cc
32cc#
24dd
24ee-
24ee
16gg
16ff
=165
24ff
24ee-
24dd
24dd
24cc
24b-
24b-
24g#
24a
24cc
24a
24b-
=166
8b
[8cc
16cc]
16ff#
16aa
16gg
=167
24gg
24ff
24ee-
24ee-
24dd
24cc
24cc
24a
24b-
24dd
24b
24cc
=168
8cc#
[8dd
24dd]
24ff
24ee
24ff
24gg
24dd
=169
24ff
24ee-
24dd
24ee-
24ff
24cc
24ee-
24dd
24cc#
24dd
24gg
24dd
=170
24ff
24ee-
24dd
24ee-
24ff
24cc
32ee-
32dd
32cc#
32dd
32ee-
32ee
32ff
32ff#
=171
32gg
32aa-
32aa
32bb-
32bb
32ccc
32ccc#
32ddd
32eee
32ddd
32ccc
32bb-
32aa
32gg
32ff
32ee
=172
8gg
8ff
16r
16ff
16gg
16ff
=173
24r
24ee-
24dd
24r
24cc
24b-
24r
24g#
24a
24r
24a
24b-
=174
8b
8.cc
16ff#
16aa
16gg
=175
24r
24ff
24ee-
24r
24dd
24cc
24r
24a
24b-
24r
24b
24cc
=176
8cc
[8dd
24dd]
24ff
24ee
24ff
24gg
24dd
=177
24ff
24ee-
24dd
24ee-
24ff
24cc
24ee-
24dd
24cc#
24dd
24gg
24dd
=178
24ff
24ee-
24dd
24ee-
24ff
24cc
24ee-
24dd
24cc#
24dd
24ee-
24ee
=179
24ff
24ff#
24gg
24aa-
24aa
24bb-
8b-
8cc
=180
8cc
[8dd
32dd]
32b-
32a
32b-
32b
32cc
32cc#
32dd
=181
32ee-
32ee
32ff
32ff#
32gg
32aa-
32aa
32bb-
8b-
16.dd
32cc
=182
32b-
32f
32g
32a
32b-
32cc
32dd
32ee-
4ff
=183
4ff
4ff
=184
4ff
4bb-
=185
8bb-
8ccc
8ddd
8eee-
=186
8ddd
16bb-
16r
4ff
=187
4ff
[4ff
=188
4ff]
[4bb-
=189
8bb-]
8ccc
8ddd
8eee-
=190
8ddd
16bb-
16r
[4bb-
=191
8bb-]
8ccc
8ddd
8eee-
=192
8ddd
16bb-
16r
[4bb-
=193
8bb-]
8ccc
8ddd
8aa
=194
16bb-
16ff
16gg
16ff
16ee-
16dd
16cc
16b-
=195
16a
16g
[8f
8f]
16g
16a
=196
16b-
16f
16g
16f
16e-
16d
16c
16B-
=197
16A
16G
[8F
8F]
16G
16A
=198
8B-
8a
8b-
8aa
=199
8bb-
8r
==
*-
